public/images/ticket-bg.svg

<svg width="193" height="230" viewBox="0 0 193 230" fill="none" xmlns="http://www.w3.org/2000/svg">
<g clip-path="url(#clip0)">
<path opacity="0.1" d="M219.322 82.375C221.63 84.683 221.948 88.315 220.076 90.988C185.836 139.908 143.496 182.624 94.881 217.296L91.041 220.034C89.6776 221.006 88.014 221.463 86.3454 221.324C84.6768 221.186 83.1114 220.46 81.927 219.277L64.644 201.993C74.847 191.429 74.734 174.593 64.308 164.167C53.882 153.741 37.046 153.627 26.481 163.831L10.584 147.933C9.87432 147.222 9.3279 146.365 8.98272 145.422C8.63754 144.479 8.50186 143.471 8.58512 142.47C8.66839 141.469 8.96859 140.498 9.46487 139.625C9.96116 138.752 10.6416 137.997 11.459 137.413L15.301 134.673C62.7411 100.84 104.057 59.1559 137.469 11.418C139.809 8.074 144.602 7.654 147.489 10.541L163.669 26.721C153.505 37.288 153.629 54.094 164.044 64.508C174.459 74.922 191.264 75.048 201.831 64.882L219.324 82.375H219.322Z" fill="#DBCDF9"/>
<path opacity="0.1" d="M226.982 87.155L165.194 165.395L85.276 225.9L69.906 210.42L64.361 203.698L69.906 195.675L71.849 187.652L70.779 179.092L67.569 171.069L62.219 164.651L55.799 160.371L48.846 158.231H40.288L31.195 161.441L25.845 166.255L13.008 150.745L33.89 147.63C98.6607 137.97 159.859 111.818 211.608 71.685L226.978 87.165L226.982 87.155Z" fill="#A28BD4"/>
<g opacity="0.1">
<path opacity="0.1" fill-rule="evenodd" clip-rule="evenodd" d="M56.846 202.744C56.8471 201.619 57.0702 200.504 57.5024 199.465C57.9347 198.426 58.5676 197.482 59.365 196.688L59.395 196.66C66.593 189.462 66.593 177.792 59.395 170.594C52.197 163.396 40.527 163.396 33.329 170.594L33.299 170.624C32.5047 171.421 31.5611 172.054 30.5222 172.486C29.4832 172.918 28.3692 173.141 27.244 173.142C26.1188 173.143 25.0044 172.922 23.9645 172.492C22.9247 172.062 21.9798 171.431 21.184 170.636L4.534 153.986C-2.232 147.22 -1.3 136 6.5 130.445L10.342 127.705L15.312 134.673L11.47 137.413C10.6526 137.997 9.97214 138.752 9.47585 139.625C8.97957 140.498 8.67937 141.469 8.59611 142.47C8.51284 143.471 8.64852 144.479 8.9937 145.422C9.33889 146.365 9.8853 147.222 10.595 147.933L27.245 164.583L27.325 164.503C37.868 154.003 54.927 154.016 65.455 164.543C75.983 175.07 75.995 192.126 65.497 202.67L65.455 202.71L65.415 202.752L81.939 219.275C83.1233 220.459 84.6889 221.185 86.3577 221.323C88.0265 221.462 89.6904 221.005 91.054 220.033L94.894 217.295C143.51 182.625 185.849 139.907 220.089 90.987C221.961 88.313 221.643 84.682 219.335 82.374L201.978 65.017L201.778 65.209L201.585 65.399C191.031 75.749 174.085 75.685 163.609 65.209C153.133 54.733 153.069 37.787 163.409 27.232L163.609 27.04L163.801 26.84L147.501 10.54C146.823 9.863 146.004 9.34261 145.104 9.01534C144.203 8.68806 143.241 8.56182 142.287 8.64548C141.332 8.72914 140.407 9.02067 139.577 9.49962C138.747 9.97857 138.031 10.6333 137.481 11.418C104.065 59.157 62.7447 100.841 15.3 134.673L10.33 127.705C56.978 94.438 97.604 53.45 130.458 6.51C135.85 -1.19399 146.89 -2.16 153.538 4.488L169.848 20.788C170.648 21.5879 171.281 22.5382 171.711 23.5842C172.141 24.6302 172.36 25.7511 172.354 26.882C172.348 28.013 172.119 29.1316 171.678 30.1733C171.238 31.215 170.595 32.1591 169.788 32.951L169.656 33.081C162.458 40.279 162.458 51.949 169.656 59.147C176.854 66.345 188.523 66.345 195.721 59.147L195.853 59.014C196.645 58.2068 197.589 57.5645 198.631 57.1242C199.672 56.684 200.791 56.4545 201.922 56.449C203.053 56.4435 204.173 56.6622 205.219 57.0923C206.265 57.5224 207.215 58.1555 208.015 58.955L225.371 76.312C230.615 81.556 231.338 89.808 227.086 95.884C192.286 145.604 149.256 189.016 99.848 224.254L96.008 226.992C92.9959 229.139 89.3202 230.149 85.6339 229.843C81.9476 229.536 78.4892 227.933 75.873 225.318L59.349 208.794C58.5533 207.998 57.9223 207.053 57.4921 206.014C57.062 204.974 56.841 203.859 56.842 202.734L56.846 202.744Z" fill="#633001"/>
<path opacity="0.1" fill-rule="evenodd" clip-rule="evenodd" d="M114.966 40.442L118.749 44.224C119.53 45.031 119.962 46.1125 119.953 47.2353C119.943 48.3581 119.493 49.4322 118.699 50.2262C117.905 51.0201 116.831 51.4703 115.708 51.4796C114.585 51.4889 113.504 51.0567 112.697 50.276L108.915 46.494C108.14 45.686 107.713 44.6065 107.724 43.4869C107.736 42.3674 108.186 41.2971 108.977 40.5054C109.769 39.7136 110.839 39.2636 111.959 39.2518C113.078 39.2399 114.158 39.6672 114.966 40.442ZM130.852 56.327L134.634 60.109C135.404 60.918 135.827 61.9959 135.814 63.1127C135.8 64.2295 135.35 65.2967 134.56 66.0864C133.771 66.8762 132.703 67.3259 131.587 67.3397C130.47 67.3534 129.392 66.9301 128.583 66.16L124.801 62.378C124.026 61.57 123.599 60.4905 123.61 59.371C123.622 58.2514 124.072 57.1811 124.863 56.3894C125.655 55.5976 126.725 55.1476 127.845 55.1358C128.964 55.1239 130.044 55.5512 130.852 56.326V56.327ZM150.52 82.047C149.717 82.8491 148.629 83.2997 147.494 83.2997C146.36 83.2997 145.272 82.8491 144.469 82.047L139.929 77.507C139.154 76.6988 138.727 75.6193 138.739 74.4998C138.751 73.3802 139.201 72.31 139.992 71.5184C140.784 70.7268 141.854 70.2769 142.974 70.2653C144.093 70.2536 145.173 70.6811 145.981 71.456L150.519 75.996C151.321 76.7986 151.772 77.8871 151.772 79.022C151.772 80.1569 151.321 81.2454 150.519 82.048L150.52 82.047ZM166.405 97.931C165.602 98.7334 164.514 99.1842 163.379 99.1842C162.244 99.1842 161.156 98.7334 160.353 97.931L155.813 93.391C155.032 92.584 154.6 91.5025 154.609 90.3797C154.619 89.2569 155.069 88.1828 155.863 87.3888C156.657 86.5949 157.731 86.1447 158.854 86.1354C159.976 86.1261 161.058 86.5583 161.865 87.339L166.405 91.879C167.207 92.6816 167.658 93.7701 167.658 94.905C167.658 96.0399 167.207 97.1284 166.405 97.931ZM177.75 103.227L181.532 107.009C182.307 107.817 182.734 108.897 182.723 110.016C182.711 111.136 182.261 112.206 181.47 112.998C180.678 113.789 179.608 114.239 178.488 114.251C177.369 114.263 176.289 113.836 175.481 113.061L171.698 109.278C170.923 108.47 170.496 107.39 170.508 106.271C170.52 105.151 170.97 104.081 171.761 103.289C172.553 102.498 173.623 102.048 174.743 102.036C175.862 102.025 176.942 102.452 177.75 103.227ZM193.636 119.111L197.418 122.893C198.193 123.701 198.62 124.781 198.609 125.9C198.597 127.02 198.147 128.09 197.356 128.882C196.564 129.673 195.494 130.123 194.374 130.135C193.255 130.147 192.175 129.72 191.367 128.945L187.585 125.163C186.81 124.355 186.383 123.275 186.394 122.156C186.406 121.036 186.856 119.966 187.647 119.174C188.439 118.383 189.509 117.933 190.629 117.921C191.748 117.909 192.828 118.336 193.636 119.111ZM92.836 106.746C88.239 102.149 88.239 94.696 92.836 90.1C98.036 84.9 106.704 85.693 110.868 91.77L121.354 107.07C130.504 104.134 140.217 104.524 146.654 110.97C152.439 116.755 153.317 125.27 151.356 133.405C149.373 141.622 144.356 150.277 136.983 157.651C129.61 165.025 120.953 170.051 112.737 172.024C104.613 173.984 96.087 173.107 90.302 167.322C83.904 160.922 83.482 151.284 86.36 142.185L70.994 131.655C64.918 127.491 64.116 118.831 69.324 113.622C73.921 109.026 81.374 109.026 85.97 113.622L96.617 124.27C97.671 123.034 98.79 121.822 99.972 120.64C101.098 119.514 102.266 118.431 103.474 117.394L92.836 106.756V106.746Z" fill="#633001"/>
</g>
<g opacity="0.1">
<path opacity="0.1" d="M111.385 150.678C113.395 148.668 112.655 144.669 109.731 141.746C106.808 138.822 102.809 138.082 100.799 140.092C98.7886 142.102 99.529 146.101 102.453 149.024C105.376 151.948 109.375 152.688 111.385 150.678Z" fill="#DBCDF9"/>
<path opacity="0.1" d="M130.574 131.489C132.584 129.479 131.844 125.48 128.92 122.557C125.997 119.633 121.998 118.893 119.988 120.903C117.978 122.913 118.718 126.912 121.642 129.835C124.565 132.759 128.564 133.499 130.574 131.489Z" fill="#DBCDF9"/>
</g>
</g>
<defs>
<clipPath id="clip0">
<rect width="193" height="230" fill="white"/>
</clipPath>
</defs>
</svg>

<svg xmlns="http://www.w3.org/2000/svg" xmlns:v="https://vecta.io/nano" width="193" height="230" fill="none" opacity=".1"><path fill="#dbcdf9" d="M219.322 82.375c2.308 2.308 2.626 5.94.754 8.613A524.66 524.66 0 0 1 94.881 217.296l-3.84 2.738a7.08 7.08 0 0 1-9.114-.757l-17.283-17.284c10.203-10.564 10.09-27.4-.336-37.826s-27.262-10.54-37.827-.336l-15.897-15.898a6.92 6.92 0 0 1 .875-10.52l3.842-2.74A511.96 511.96 0 0 0 137.469 11.418c2.34-3.344 7.133-3.764 10.02-.877l16.18 16.18c-10.164 10.567-10.04 27.373.375 37.787s27.22 10.54 37.787.374l17.493 17.493z"/><path fill="#a28bd4" d="M226.982 87.155l-61.788 78.24L85.276 225.9l-15.37-15.48-5.545-6.722 5.545-8.023 1.943-8.023-1.07-8.56-3.21-8.023-5.35-6.418-6.42-4.28-6.953-2.14h-8.558l-9.093 3.21-5.35 4.814-12.837-15.51 20.882-3.115a381.92 381.92 0 0 0 177.718-75.945l15.37 15.48z"/><g fill="#633001" fill-rule="evenodd"><path d="M56.846 202.744a8.56 8.56 0 0 1 2.519-6.056l.03-.028c7.198-7.198 7.198-18.868 0-26.066s-18.868-7.198-26.066 0l-.03.03a8.56 8.56 0 0 1-12.115.012l-16.65-16.65C-2.232 147.22-1.3 136 6.5 130.445l3.842-2.74 4.97 6.968-3.842 2.74a6.92 6.92 0 0 0-.875 10.52l16.65 16.65.08-.08c10.543-10.5 27.602-10.487 38.13.04s10.54 27.583.042 38.127l-.042.04-.04.042 16.524 16.523a7.08 7.08 0 0 0 9.115.758l3.84-2.738c48.616-34.67 90.955-77.388 125.195-126.308 1.872-2.674 1.554-6.305-.754-8.613l-17.357-17.357-.2.192-.193.19c-10.554 10.35-27.5 10.286-37.976-.19s-10.54-27.422-.2-37.977l.2-.192.192-.2-16.3-16.3a6.57 6.57 0 0 0-10.02.878A511.96 511.96 0 0 1 15.3 134.673l-4.97-6.968C56.978 94.438 97.604 53.45 130.458 6.51c5.392-7.704 16.432-8.67 23.08-2.022l16.31 16.3a8.56 8.56 0 0 1-.06 12.163l-.132.13c-7.198 7.198-7.198 18.868 0 26.066s18.867 7.198 26.065 0l.132-.133a8.56 8.56 0 0 1 12.162-.059l17.356 17.357c5.244 5.244 5.967 13.496 1.715 19.572-34.8 49.72-77.83 93.132-127.238 128.37l-3.84 2.738a15.64 15.64 0 0 1-20.135-1.674l-16.524-16.524a8.56 8.56 0 0 1-2.507-6.06z"/><path d="M114.966 40.442l3.783 3.782a4.28 4.28 0 0 1-6.052 6.052l-3.782-3.782a4.28 4.28 0 0 1 6.051-6.052zm15.886 15.885l3.782 3.782a4.28 4.28 0 0 1-6.051 6.051l-3.782-3.782a4.28 4.28 0 0 1 6.051-6.052zm19.668 25.72a4.28 4.28 0 0 1-6.051 0l-4.54-4.54a4.28 4.28 0 0 1 6.052-6.051l4.538 4.54a4.28 4.28 0 0 1 0 6.052zm15.885 15.884a4.28 4.28 0 0 1-6.052 0l-4.54-4.54a4.28 4.28 0 0 1 6.052-6.052l4.54 4.54a4.28 4.28 0 0 1 0 6.052zm11.345 5.296l3.782 3.782a4.28 4.28 0 0 1-6.051 6.052l-3.783-3.783a4.28 4.28 0 0 1 6.052-6.051zm15.886 15.884l3.782 3.782a4.28 4.28 0 0 1-6.051 6.052l-3.782-3.782a4.28 4.28 0 0 1 6.051-6.052zm-100.8-12.365c-4.597-4.597-4.597-12.05 0-16.646 5.2-5.2 13.868-4.407 18.032 1.67l10.486 15.3c9.15-2.936 18.863-2.546 25.3 3.9 5.785 5.785 6.663 14.3 4.702 22.435-1.983 8.217-7 16.872-14.373 24.246s-16.03 12.4-24.246 14.373c-8.124 1.96-16.65 1.083-22.435-4.702-6.398-6.4-6.82-16.038-3.942-25.137l-15.366-10.53c-6.076-4.164-6.878-12.824-1.67-18.033 4.597-4.596 12.05-4.596 16.646 0l10.647 10.648c1.054-1.236 2.173-2.448 3.355-3.63a62.87 62.87 0 0 1 3.502-3.246l-10.638-10.638z"/></g><g fill="#dbcdf9"><ellipse cx="106.092" cy="145.385" rx="5.147" ry="7.486" transform="rotate(315 106.092 145.385)"/><ellipse cx="125.281" cy="126.196" rx="5.147" ry="7.486" transform="rotate(315 125.281 126.196)"/></g></svg>
